src/images/link-01.svg

<svg viewBox="0 0 24 24" fill="none" xmlns="http://www.w3.org/2000/svg"><path opacity=".4" fill-rule="evenodd" clip-rule="evenodd" d="M16.2071 7.79289c.3905.39053.3905 1.02369 0 1.41422L9.20711 16.2071c-.39053.3905-1.02369.3905-1.41422 0-.39052-.3905-.39052-1.0237 0-1.4142l7.00001-7.00001c.3905-.39052 1.0237-.39052 1.4142 0z" fill="#000"/><path fill-rule="evenodd" clip-rule="evenodd" d="M12 3.51468c2.3431-2.34314 6.1421-2.34314 8.4852 0 2.3432 2.34315 2.3432 6.14214 0 8.48532l-1.4142 1.4142c-.3905.3905-1.0237.3905-1.4142 0-.3905-.3905-.3905-1.0237 0-1.4142l1.4142-1.4142c1.5621-1.56215 1.5621-4.09481 0-5.6569-1.5621-1.5621-4.0947-1.5621-5.6568 0L12 6.34311c-.3906.39052-1.0237.39052-1.4142 0-.3906-.39052-.3906-1.02369 0-1.41421L12 3.51468zM6.34311 10.5858c.39052.3905.39052 1.0236 0 1.4142L4.9289 13.4142c-1.5621 1.5621-1.5621 4.0947 0 5.6568 1.56209 1.5621 4.09475 1.5621 5.6569 0L12 17.6568c.3905-.3905 1.0237-.3905 1.4142 0 .3905.3905.3905 1.0237 0 1.4142L12 20.4852c-2.34318 2.3432-6.14217 2.3432-8.48532 0-2.34314-2.3431-2.34314-6.1421 0-8.4852l1.41422-1.4142c.39052-.3906 1.02369-.3906 1.41421 0z" fill="#000"/></svg>

<svg width="24" height="24" viewBox="0 0 24 24" fill="none" xmlns="http://www.w3.org/2000/svg">
<path opacity="0.4" fill-rule="evenodd" clip-rule="evenodd" d="M16.2071 7.79289C16.5976 8.18342 16.5976 8.81658 16.2071 9.20711L9.20711 16.2071C8.81658 16.5976 8.18342 16.5976 7.79289 16.2071C7.40237 15.8166 7.40237 15.1834 7.79289 14.7929L14.7929 7.79289C15.1834 7.40237 15.8166 7.40237 16.2071 7.79289Z" fill="black"/>
<path fill-rule="evenodd" clip-rule="evenodd" d="M12 3.51468C14.3431 1.17154 18.1421 1.17154 20.4852 3.51468C22.8284 5.85783 22.8284 9.65682 20.4852 12L19.071 13.4142C18.6805 13.8047 18.0473 13.8047 17.6568 13.4142C17.2663 13.0237 17.2663 12.3905 17.6568 12L19.071 10.5858C20.6331 9.02365 20.6331 6.49099 19.071 4.9289C17.5089 3.3668 14.9763 3.3668 13.4142 4.9289L12 6.34311C11.6094 6.73363 10.9763 6.73363 10.5858 6.34311C10.1952 5.95259 10.1952 5.31942 10.5858 4.9289L12 3.51468ZM6.34311 10.5858C6.73363 10.9763 6.73363 11.6094 6.34311 12L4.9289 13.4142C3.3668 14.9763 3.3668 17.5089 4.9289 19.071C6.49099 20.6331 9.02365 20.6331 10.5858 19.071L12 17.6568C12.3905 17.2663 13.0237 17.2663 13.4142 17.6568C13.8047 18.0473 13.8047 18.6805 13.4142 19.071L12 20.4852C9.65682 22.8284 5.85783 22.8284 3.51468 20.4852C1.17154 18.1421 1.17154 14.3431 3.51468 12L4.9289 10.5858C5.31942 10.1952 5.95259 10.1952 6.34311 10.5858Z" fill="black"/>
</svg>
